<?xml version="1.0" encoding="UTF-8"?>
<map version="1.10" tiledversion="1.12.2" orientation="orthogonal" renderorder="right-down" width="30" height="30" tilewidth="16" tileheight="16" infinite="0" nextlayerid="2" nextobjectid="1">
 <tileset firstgid="1" name="grassTileset" tilewidth="16" tileheight="16" tilecount="20" columns="4">
  <image source="../assets/grassTileset.png" width="64" height="80"/>
 </tileset>
 <tileset firstgid="21" name="world_tileset" tilewidth="16" tileheight="16" tilecount="256" columns="16">
  <image source="../assets/world_tileset.png" width="256" height="256"/>
 </tileset>
 <layer id="1" name="Tile Layer 1" width="30" height="30">
  <data encoding="csv">
165,165,165,165,165,165,165,165,165,165,165,165,165,165,165,165,165,165,165,165,165,165,165,165,165,165,165,165,165,165,
165,165,165,165,165,165,165,165,165,165,165,165,165,165,165,165,165,165,165,165,165,165,165,165,165,165,165,165,165,165,
165,165,165,165,165,165,165,165,165,165,165,165,165,165,165,165,165,165,165,165,165,165,165,165,165,165,165,165,165,165,
165,165,165,165,165,165,165,165,165,165,165,165,165,165,165,165,165,165,165,165,165,165,165,165,165,165,165,165,165,165,
165,165,165,165,165,165,165,165,165,165,165,165,165,165,165,165,165,165,165,165,165,165,165,165,165,165,165,165,165,165,
165,165,165,165,165,165,165,165,165,165,165,165,165,165,165,165,165,165,165,165,165,165,165,165,165,165,165,165,165,165,
165,165,165,165,165,165,165,165,165,165,165,90,85,85,165,165,85,85,90,165,165,165,165,165,165,165,165,165,165,165,
165,165,165,165,165,165,165,165,165,165,165,90,22,22,22,22,22,22,90,165,165,165,165,165,165,165,165,165,165,165,
165,165,165,165,165,165,165,165,165,165,165,90,22,22,22,22,22,22,90,165,165,165,165,165,165,165,165,165,165,165,
165,165,165,165,165,165,165,165,165,165,165,90,22,22,22,22,22,22,90,165,165,165,165,165,165,165,165,165,165,165,
165,165,165,165,165,165,165,165,165,165,165,90,22,22,22,22,22,22,90,165,165,165,165,165,165,165,165,165,165,165,
165,165,165,165,165,165,165,165,165,165,165,90,22,22,22,22,22,22,90,165,165,165,165,165,165,165,165,165,165,165,
165,165,165,165,165,165,165,165,165,165,165,90,22,22,22,22,22,22,90,165,165,165,165,165,165,165,165,165,165,165,
165,165,165,165,165,165,165,165,165,165,165,90,22,22,22,22,22,22,90,165,165,165,165,165,165,165,165,165,165,165,
165,165,165,165,165,165,165,165,165,165,165,90,22,22,22,22,22,22,90,165,165,165,165,165,165,165,165,165,165,165,
165,165,165,165,165,165,165,165,165,165,165,90,22,22,22,22,22,22,90,165,165,165,165,165,165,165,165,165,165,165,
165,165,165,165,165,165,165,165,165,165,165,90,22,22,22,22,22,22,90,165,165,165,165,165,165,165,165,165,165,165,
165,165,165,165,165,165,165,165,165,165,165,90,22,22,22,22,22,22,90,165,165,165,165,165,165,165,165,165,165,165,
165,165,165,165,165,165,165,165,165,165,165,90,22,22,22,22,22,22,90,165,165,165,165,165,165,165,165,165,165,165,
165,165,165,165,165,165,165,165,165,165,165,90,85,85,85,85,85,85,90,165,165,165,165,165,165,165,165,165,165,165,
181,181,181,181,181,181,181,181,181,181,181,181,181,181,181,181,181,181,181,181,181,181,181,181,181,181,181,181,181,181,
197,197,197,197,197,197,197,197,197,197,197,197,197,197,197,197,197,197,197,197,197,197,197,197,197,197,197,197,197,197,
197,197,197,197,197,197,197,197,197,197,197,197,197,197,197,197,197,197,197,197,197,197,197,197,197,197,197,197,197,197,
197,197,197,197,197,197,197,197,197,197,197,197,197,197,197,197,197,197,197,197,197,197,197,197,197,197,197,197,197,197,
197,197,197,197,197,197,197,197,197,197,197,197,197,197,197,197,197,197,197,197,197,197,197,197,197,197,197,197,197,197,
197,197,197,197,197,197,197,197,197,197,197,197,197,197,197,197,197,197,197,197,197,197,197,197,197,197,197,197,197,197,
197,197,197,197,197,197,197,197,197,197,197,197,197,197,197,197,197,197,197,197,197,197,197,197,197,197,197,197,197,197,
197,197,197,197,197,197,197,197,197,197,197,197,197,197,197,197,197,197,197,197,197,197,197,197,197,197,197,197,197,197,
197,197,197,197,197,197,197,197,197,197,197,197,197,197,197,197,197,197,197,197,197,197,197,197,197,197,197,197,197,197,
197,197,197,197,197,197,197,197,197,197,197,197,197,197,197,197,197,197,197,197,197,197,197,197,197,197,197,197,197,197
</data>
 </layer>
</map>
